X: 33777
T: Raven's Rock, The
R: waltz
M: 3/4
K: Dmajor
de|B2AFAd|~F2EDDB|~A2FAde|
fedcB2|AFAd~F2|EDDF~E2|DBAFD2:|
Ad|~B2BAdf|~e2dfe2|dBBAdf|
efabf2|dBBAdf|~e2dfed|B2BABd|
F2EDAd|~B2BAdf|~e2dfe2|dBBAdf|
efabf2|abfef2|e2edBA|F2FEFA|D4

